X:1
T: In With the New
R: reel
C: Rick Gagne
N: 1988 on whistle
M: 4/4
Q: 1/4=175
K: Edor
Bd | "Em"efge "Bm"fB~B2 |"D"dBAF DEFD |"Em"efg/f/e "Bm"f2ab |"D"afdB def/e/d |
"Em"eB~B2 "Bm"dB~B2 |"D"dBAF DEFD | "Em"EFGE "Bm"FB~B2 | "Bm"dBfB "Em"e2 :|
fg | "D"afef dF~F2 | ABdB "Bm"f2ed | "Em"eB~B2 efge | "Bm"fB~B2 f2ef |
"G"gfeg "D"fedf | "Em"eBfB "G"edBd | "D"ABdB "Bm"eBdB | "Em"eBfB "A"e2 :|
